X:210
T: Vom christlichen Abschied aus dieser Welt
N: A0254B
O: Europa, Mitteleuropa, Deutschland
N: 1555
R: Romanze, Ballade, Lied
M: 6/4
L: 1/4
K: F
F | F2GA2c | B2A2z
A | c2cG2A | F2E2z
F | GABA | G2z
A | F2GA2c | B2A2z
A | c2cG2A | F2E2z
C | F2G2 | A2B2 | A2G2 | F3

